X:1
T:Ingerid Sletten
T:W. Peterson-Berger (1867-1942)
T:Fansång
T:©CPDL Edition may be freely distributed, duplicated, performed and recorded PA Aglert
T:©CPDL Edition may be freely distributed, duplicated, performed and recorded PA Aglert
T:©CPDL Edition may be freely distributed, duplicated, performed and recorded PA Aglert
C:W. Peterson-Berger (1867-1942)
Z:©CPDL Edition may be freely distributed, duplicated, performed and recorded
Z:PA Aglert
%%score [ 1 2 3 4 ]
L:1/8
Q:1/4=120
M:4/4
K:G
V:1 treble nm="S"
V:2 treble nm="A"
V:3 treble-8 nm="T"
V:4 bass nm="B"
V:1
"^Marsch" B2 (DG) B2 (AG) | e4 d4 | B2 AG F2 E2 | D8 | G2 FG A2 B2 | c4 E4 |!<(! G2 FG A2 B2!<)! | %7
w: Hem- lands- * luf- ten som|gli- der|fram ö- ver fad- rens|jord,|hur än du konst- fullt|smi- der|ked- jor av ord till|
w: Lyft då den vi- ta _|stång- en|högt och med kraf- tig|arm!|Tol- ka kan en- dast|sång- en|sprung- en ur mån- sko-|
!p!!<(! ^c8!<)! | (d2 ^c)B A2 (^GG) | F4 E4 | !courtesy!=c2 BA (GF)ED |!<(! (E2 G6)!<)! | %12
w: ord,|tol- kar du ej dess _|tjus- ning,|ty- * der ej dess ving- e-|fläkt _|
w: barm.|Stig _ då, sång, un- der|sky- ar,|ma- na med fa- * nans sym-|bol _|
 G2 FE!<(! D2 GB!<)! |!>(! e4 B4!>)! | B2 AG E2 F2 | G6 z2 |] %16
w: el- ler den tan- kar- nas|ljus- ning|vin- den i fa- nor|väckt.|
w: an- den som e- vigt för-|ny- ar|sjä- lar- nas tung- o-|mål!|
V:2
 G2 (DD) G2 (DD) | (G2 F2) G4 | G2 EE ^C2 C2 | !courtesy!=C8 | _E2 EE =E2 ^D2 | !courtesy!=D4 D4 | %6
w: Hem- lands- * luf- ten som|gli- * der|fram ö- ver fad- rens|jord,|hur än du konst- fullt|smi- der|
w: Lyft då den vi- ta _|stång- * en|högt och med kraf- tig|arm!|Tol- ka kan en- dast|sång- en|
!<(! ^C2 CC E2!<)! E2 |!p!!<(! E8!<)! | (D2 D)D D2 (DD) | D4 D4 | (C3 C) C2 C2 | %11
w: ked- jor av ord till|ord,|tol- kar du ej dess _|tjus- ning,|ty- der ej dess|
w: sprung- en ur mån- sko-|barm.|Stig _ då, sång, un- der|sky- ar,|ma- * na med|
 (B,2 B,)B, (C2 ^C2) | D2 ^CC!<(! D2 DD!<)! |!>(! D4!>)! D4 | ^C2 CC =C2 C2 | B,6 z2 |] %16
w: ving- * e- fläkt _|el- ler den tan- kar- nas|ljus- ning|vin- den i fa- nor|väckt.|
w: fa- nans sym- bol _|an- den som e- vigt för-|ny- ar|sjä- lar- nas tung- o-|mål!|
V:3
 d2 (BB) d2 (cB) | c4 B4 | d2 ^cB A4- | A2 A2 (G2 F2) | G2 cc c2 A2 | ^G4 G4 | %6
w: Hem- lands- * luf- ten som|gli- der|fram ö- ver fad-|* rens jord, _|hur än du konst- fullt|smi- der|
w: Lyft då den vi- ta _|stång- en|högt och med kraf-|* tig arm! _|Tol- ka kan en- dast|sång- en|
!<(! A2 AA ^c2!<)! c2 |!p!!<(! ^A8!<)! | (F4 B2) B2 | A2 (BA) ^G2 G2 | (E3 E) A2 (GF) | %11
w: ked- jor av ord till|ord,|tol- kar du|ej dess _ tjus- ning,|ty- der ej dess _|
w: sprung- en ur mån- sko-|barm.|Stig _ då,|sång, un- der sky- ar,|ma- * na med _|
 (G4 G)G(A^A) | B2 ^AA!<(! B2 B=A!<)! |!>(! ^G4 G4!>)! | !courtesy!=G2 GG G2 A2 | D6 z2 |] %16
w: ving- * e- fläkt _|el- ler den tan- kar- nas|ljus- ning|vin- den i fa- nor|väckt.|
w: fa- nans sym- bol _|an- den som e- vigt för-|ny- ar|sjä- lar- nas tung- o-|mål!|
V:4
 G,2 (G,G,) G,2 (G,G,) | G,4 G,4 | E,4 A,2 G,2 | G,2 F,2 (E,2 D,2) | C,2 A,G, F,2 =F,2 | E,4 E,4 | %6
w: Hem- lands- * luf- ten som|gli- der|fram ö- ver|fad- rens jord, _|hur än du konst- fullt|smi- der|
w: Lyft då den vi- ta _|stång- en|högt och med|kraf- tig arm! _|Tol- ka kan en- dast|sång- en|
!<(! A,,2 A,A, G,2!<)! G,2 |!p!!<(! F,8!<)! | B,,3 F, =F,2 F,F, | E,4 E,4 | (A,,3 E,) _E,2 D,2 | %11
w: ked- jor av ord till|ord,|tol- kar du ej dess|tjus- ning,|ty- der ej dess|
w: sprung- en ur mån- sko-|barm.|Stig då, sång, un- der|sky- ar,|ma- * na med|
 (=F,2 F,)F, (E,2 _E,2) | D,2 D,D,!<(! !courtesy!=A,2 G,=F,!<)! |!>(! E,4!>)! E,4 | %14
w: ving- * e- fläkt _|el- ler den tan- kar- nas|ljus- ning|
w: fa- nans sym- bol _|an- den som e- vigt för-|ny- ar|
 A,,2 A,,A,, D,2 D,2 | G,,6 z2 |] %16
w: vin- den i fa- nor|väckt.|
w: sjä- lar- nas tung- o-|mål!|

